X:325
T: Bu guo
N: C0968
O: China,Hunan
S: MM, selbst aufgeschrieben vom Saenger, Quelle S. Bandprotokoll)
N: Die Saengerin Liang Zhaoping studiert an der Guangzhouer
N: Musikhochschule. Aufgenommen am 5.5.87
N: Wenig Verzierungen. Vorspiel weggelassen. Das Lied wird wiederholt.
R: Wuge, Huagu, Hunan huagu]
M: 2/4
L: 1/16
K: G
d2deG2FG | A8 | G2EDG2A2 | d8 |
d2G4A2 | g2e2d4 | A2d2d2BA | d2G2z4 |
d2deG2GA | d8 | c3dg2e2 | d8 |
G2GEG2A2 | g2e2d4 | G2GAdeBA | G8 |
c3dg2c2 | g2e2d4 | g4c2A2 | ged2z4 |
A2d4BA | G2F2G4 | ABAGfGAB | G8 |
A2d4BA | G2F2G4 | ABAGfGAB | G8

@@@ Tune index: 6326
